src/icons/arrow-left-c.svg

<?xml version="1.0" encoding="UTF-8"?>
<svg width="512px" height="512px" viewBox="0 0 512 512" version="1.1" xmlns="http://www.w3.org/2000/svg" xmlns:xlink="http://www.w3.org/1999/xlink">
    <!-- Generator: Sketch 62 (91390) - https://sketch.com -->
    <title>arrow-left-c</title>
    <desc>Created with Sketch.</desc>
    <g id="arrow-left-c" stroke="none" stroke-width="1" fill="none" fill-rule="evenodd">
        <path d="M195.4,133.406271 L104.2,228.906271 C98.7,234.206271 96,241.406271 96,249.306271 C96,257.206271 98.7,264.306271 104.2,269.706271 L195.4,365.506271 C206.2,376.906271 223.9,376.906271 234.7,365.506271 C245.5,354.106271 245.5,335.806271 234.7,324.406271 L191,278.606271 L388.2,278.606271 C403.6,278.606271 416,265.606271 416,249.506271 C416,233.406271 403.5,220.406271 388.2,220.406271 L190.9,220.406271 L234.7,174.606271 C245.5,163.206271 245.5,144.906271 234.7,133.506271 C223.8,122.106271 206.3,122.106271 195.4,133.406271 Z" id="Path" fill="#000000" fill-rule="nonzero"></path>
    </g>
</svg>

<svg xmlns="http://www.w3.org/2000/svg" width="512" height="512" viewBox="0 0 512 512">
    <path d="M195.4 133.406l-91.2 95.5c-5.5 5.3-8.2 12.5-8.2 20.4 0 7.9 2.7 15 8.2 20.4l91.2 95.8c10.8 11.4 28.5 11.4 39.3 0 10.8-11.4 10.8-29.7 0-41.1l-43.7-45.8h197.2c15.4 0 27.8-13 27.8-29.1s-12.5-29.1-27.8-29.1H190.9l43.8-45.8c10.8-11.4 10.8-29.7 0-41.1-10.9-11.4-28.4-11.4-39.3-.1z"/>
</svg>
